X:585
T: Suqu zhengquan kaihonghua
N: C2006
O: China, Fujian Yongding
S: II, 584]
R: Xiaodiao]
M: 2/4
L: 1/16
K: D
d2f2e4 | f2f2e4 | f4f2d2 | e2e6
d2f2e4 | f2f2e4 | e4e2d2 | B2B6
B2f2e4 | f2f2e4 | e4e2d2 | B2d6
B2f2e4 | f2f2e4 | e4e2d2 | B4B4
d2B2d6f2 | e2f2e2d2 | B4B4

